static/static/logo.svg

<?xml version="1.0" encoding="UTF-8" standalone="no"?>
<svg
   width="398"
   height="107"
   viewBox="0 0 398 107"
   fill="none"
   version="1.1"
   id="svg16"
   sodipodi:docname="logo.svg"
   inkscape:version="1.4.2 (ebf0e940d0, 2025-05-08)"
   xmlns:inkscape="http://www.inkscape.org/namespaces/inkscape"
   xmlns:sodipodi="http://sodipodi.sourceforge.net/DTD/sodipodi-0.dtd"
   xmlns="http://www.w3.org/2000/svg"
   xmlns:svg="http://www.w3.org/2000/svg">
  <sodipodi:namedview
     id="namedview16"
     pagecolor="#ffffff"
     bordercolor="#000000"
     borderopacity="0.25"
     inkscape:showpageshadow="2"
     inkscape:pageopacity="0.0"
     inkscape:pagecheckerboard="0"
     inkscape:deskcolor="#d1d1d1"
     inkscape:zoom="1"
     inkscape:cx="198.5"
     inkscape:cy="53.5"
     inkscape:window-width="2560"
     inkscape:window-height="1367"
     inkscape:window-x="0"
     inkscape:window-y="0"
     inkscape:window-maximized="1"
     inkscape:current-layer="svg16" />
  <path
     d="M125.562 86V22H139.094V48.4062H166.562V22H180.063V86H166.562V59.5625H139.094V86H125.562ZM230.75 22H244.281V63.5625C244.281 68.2292 243.167 72.3125 240.938 75.8125C238.729 79.3125 235.635 82.0417 231.656 84C227.677 85.9375 223.042 86.9063 217.75 86.9063C212.438 86.9063 207.792 85.9375 203.813 84C199.833 82.0417 196.74 79.3125 194.531 75.8125C192.323 72.3125 191.219 68.2292 191.219 63.5625V22H204.75V62.4062C204.75 64.8437 205.281 67.0104 206.344 68.9062C207.427 70.8021 208.948 72.2917 210.906 73.375C212.865 74.4583 215.146 75 217.75 75C220.375 75 222.656 74.4583 224.594 73.375C226.552 72.2917 228.063 70.8021 229.125 68.9062C230.208 67.0104 230.75 64.8437 230.75 62.4062V22ZM255.414 22H272.102L289.727 65H290.477L308.102 22H324.789V86H311.664V44.3437H311.133L294.57 85.6875H285.633L269.07 44.1875H268.539V86H255.414V22ZM335.937 86V22H349.469V74.8437H376.906V86H335.937Z"
     fill="black"
     id="path1" />
  <g
     clip-path="url(#clip0_1720_11343)"
     id="g16">
    <path
       d="M90.5889 16C95.8051 16.0002 100.013 20.2657 99.9384 25.4781L99.1992 77.1331C99.1651 79.5159 98.2207 81.7965 96.5603 83.5065L84.2722 96.1626C82.5116 97.976 80.09 98.9995 77.5616 98.9995H21.3499C16.1338 98.9995 11.9264 94.734 12.001 89.5215L12.74 37.8665C12.7741 35.4834 13.7181 33.2032 15.3789 31.4927L27.6669 18.8369C29.4276 17.0234 31.8485 16.0001 34.377 16H90.5889Z"
       fill="#057D5F"
       id="path2" />
    <path
       d="M80.6696 16C85.8863 16 90.0944 20.2659 90.019 25.4785L89.3321 73.2024L76.4406 86.4021C74.6812 88.2034 72.2689 89.2192 69.7499 89.2192H21.3675C16.1511 89.2192 11.9436 84.9532 12.0186 79.7407L12.6518 35.7425C12.6863 33.3501 13.6377 31.0621 15.31 29.3499L25.5967 18.8171C27.3561 17.0156 29.7686 16.0001 32.2874 16H80.6696Z"
       fill="#00946F"
       id="path3" />
    <path
       d="M35.7077 49.7848C40.4135 49.9334 44.349 46.2414 44.4977 41.5383C44.6465 36.8353 40.9522 32.9022 36.2463 32.7535C31.5405 32.6049 27.605 36.2969 27.4563 41C27.3075 45.703 31.0018 49.6361 35.7077 49.7848Z"
       fill="#00946F"
       id="path4" />
    <path
       d="M65.7409 39.735C70.4467 39.8836 74.3822 36.1916 74.5309 31.4885C74.6797 26.7855 70.9854 22.8524 66.2795 22.7037C61.5737 22.5551 57.6382 26.2471 57.4895 30.9502C57.3407 35.6532 61.035 39.5863 65.7409 39.735Z"
       fill="#00946F"
       id="path5" />
    <path
       d="M34.8395 77.2545C39.5454 77.4032 43.4808 73.7111 43.6296 69.0081C43.7783 64.305 40.084 60.3719 35.3782 60.2233C30.6723 60.0746 26.7368 63.7667 26.5881 68.4697C26.4393 73.1728 30.1336 77.1058 34.8395 77.2545Z"
       fill="#00946F"
       id="path6" />
    <path
       d="M64.8893 66.6549C69.5952 66.8035 73.5306 63.1115 73.6794 58.4084C73.8281 53.7054 70.1338 49.7723 65.428 49.6237C60.7221 49.475 56.7866 53.1671 56.6379 57.8701C56.4891 62.5731 60.1834 66.5062 64.8893 66.6549Z"
       fill="#00946F"
       id="path7" />
    <path
       d="M36.5739 48.316C41.2798 48.4647 45.2152 44.7726 45.364 40.0696C45.5127 35.3665 41.8184 31.4335 37.1125 31.2848C32.4067 31.1361 28.4712 34.8282 28.3225 39.5312C28.1737 44.2343 31.868 48.1674 36.5739 48.316Z"
       fill="#057D5F"
       id="path8" />
    <path
       d="M35.8014 46.6418C40.0519 46.7761 43.6065 43.4413 43.7408 39.1934C43.8752 34.9455 40.5384 31.393 36.288 31.2587C32.0375 31.1245 28.4829 34.4592 28.3485 38.7071C28.2142 42.9551 31.5509 46.5075 35.8014 46.6418Z"
       fill="white"
       id="path9" />
    <path
       d="M72.9526 47.2256C76.6437 44.3044 77.2664 38.9459 74.3435 35.2571C71.4206 31.5682 66.0589 30.9459 62.3678 33.867C58.6768 36.7882 58.0541 42.1467 60.977 45.8355C63.8999 49.5244 69.2616 50.1467 72.9526 47.2256Z"
       fill="#057D5F"
       id="path10" />
    <path
       d="M71.2815 46.4447C74.6154 43.8062 75.1779 38.9663 72.5378 35.6344C69.8978 32.3026 65.055 31.7404 61.7211 34.3789C58.3872 37.0174 57.8248 41.8573 60.4648 45.1891C63.1048 48.521 67.9477 49.0831 71.2815 46.4447Z"
       fill="white"
       id="path11" />
    <path
       d="M66.5397 75.982C71.2456 76.1307 75.181 72.4386 75.3298 67.7356C75.4785 63.0326 71.7842 59.0995 67.0784 58.9508C62.3725 58.8022 58.437 62.4942 58.2883 67.1973C58.1395 71.9003 61.8338 75.8334 66.5397 75.982Z"
       fill="#057D5F"
       id="path12" />
    <path
       d="M65.7672 74.3078C70.0177 74.4421 73.5723 71.1073 73.7067 66.8594C73.841 62.6115 70.5042 59.059 66.2538 58.9248C62.0033 58.7905 58.4487 62.1253 58.3143 66.3732C58.18 70.6211 61.5168 74.1735 65.7672 74.3078Z"
       fill="white"
       id="path13" />
    <path
       d="M35.7047 75.7858C40.4106 75.9344 44.3461 72.2424 44.4948 67.5393C44.6436 62.8363 40.9493 58.9032 36.2434 58.7545C31.5375 58.6059 27.6021 62.2979 27.4533 67.001C27.3046 71.704 30.9989 75.6371 35.7047 75.7858Z"
       fill="#057D5F"
       id="path14" />
    <path
       d="M34.9323 74.1115C39.1827 74.2458 42.7373 70.911 42.8717 66.6631C43.0061 62.4152 39.6693 58.8627 35.4188 58.7285C31.1683 58.5942 27.6137 61.929 27.4794 66.1769C27.345 70.4248 30.6818 73.9772 34.9323 74.1115Z"
       fill="white"
       id="path15" />
    <path
       d="M80.6196 97.9497C78.1446 98.7742 73.0684 88.8312 73.0684 88.8312C76.4291 86.9181 83.2387 80.6143 89.2934 73.4404C91.7684 75.1812 96.8053 77.9146 97.9053 79.5636C100.524 80.089 83.2387 97.9497 80.6196 97.9497Z"
       fill="#0CA680"
       stroke="#0CA680"
       id="path16" />
  </g>
  <defs
     id="defs16">
    <clipPath
       id="clip0_1720_11343">
      <rect
         width="88"
         height="83"
         fill="white"
         transform="translate(12 16)"
         id="rect16" />
    </clipPath>
  </defs>
</svg>

<svg xmlns="http://www.w3.org/2000/svg" width="364.906" height="82.999" fill="none" xmlns:v="https://vecta.io/nano"><path d="M113.562 70V6h13.532v26.406h27.468V6h13.501v64h-13.501V43.563h-27.468V70zM218.75 6h13.531v41.563c0 4.667-1.114 8.75-3.343 12.25-2.209 3.5-5.303 6.229-9.282 8.188-3.979 1.938-8.614 2.906-13.906 2.906-5.312 0-9.958-.969-13.937-2.906-3.98-1.958-7.073-4.687-9.282-8.187s-3.312-7.583-3.312-12.25V6h13.531v40.406c0 2.438.531 4.604 1.594 6.5 1.083 1.896 2.604 3.386 4.562 4.469S203.146 59 205.75 59c2.625 0 4.906-.542 6.844-1.625 1.958-1.083 3.469-2.573 4.531-4.469 1.083-1.896 1.625-4.062 1.625-6.5zm24.664 0h16.688l17.625 43h.75l17.625-43h16.687v64h-13.125V28.344h-.531L282.57 69.688h-8.937l-16.563-41.5h-.531V70h-13.125zm80.523 64V6h13.532v52.844h27.437V70z" fill="#000"/><g clip-path="url(#A)" transform="translate(-12 -16)"><path d="M90.589 16a9.35 9.35 0 0 1 9.35 9.478l-.739 51.655a9.34 9.34 0 0 1-2.639 6.373L84.272 96.163C82.512 97.976 80.09 99 77.562 99H21.35a9.35 9.35 0 0 1-9.349-9.478l.739-51.655a9.34 9.34 0 0 1 2.639-6.374l12.288-12.656C29.428 17.023 31.849 16 34.377 16z" fill="#057d5f"/><g fill="#00946f"><path d="M80.67 16a9.35 9.35 0 0 1 9.349 9.479l-.687 47.724-12.891 13.2c-1.759 1.801-4.172 2.817-6.691 2.817H21.368a9.35 9.35 0 0 1-9.349-9.478l.633-43.998a9.34 9.34 0 0 1 2.658-6.393l10.287-10.533C27.356 17.016 29.769 16 32.287 16z"/><use href="#B"/><path d="M65.741 39.735c4.706.149 8.641-3.543 8.79-8.246s-3.546-8.636-8.251-8.785-8.641 3.543-8.79 8.247 3.545 8.636 8.251 8.785z"/><use href="#C"/><use href="#D"/></g><path d="M36.574 48.316c4.706.149 8.641-3.543 8.79-8.246s-3.546-8.636-8.251-8.785-8.641 3.543-8.79 8.246 3.546 8.636 8.251 8.785z" fill="#057d5f"/><use href="#E" fill="#fff"/><path d="M72.953 47.226a8.52 8.52 0 0 0 1.391-11.968 8.53 8.53 0 0 0-11.976-1.39 8.52 8.52 0 0 0-1.391 11.968 8.53 8.53 0 0 0 11.976 1.39z" fill="#057d5f"/><path d="M71.282 46.445c3.334-2.639 3.896-7.478 1.256-10.81s-7.483-3.894-10.817-1.255-3.896 7.478-1.256 10.81 7.483 3.894 10.817 1.256z" fill="#fff"/><path d="M66.54 75.982c4.706.149 8.641-3.543 8.79-8.246s-3.546-8.636-8.251-8.785-8.641 3.543-8.79 8.246 3.545 8.636 8.251 8.785z" fill="#057d5f"/><path d="M65.767 74.308a7.7 7.7 0 0 0 7.939-7.448 7.7 7.7 0 1 0-15.392-.486 7.7 7.7 0 0 0 7.453 7.935z" fill="#fff"/><path d="M35.705 75.786c4.706.149 8.641-3.543 8.79-8.246s-3.545-8.636-8.251-8.785-8.641 3.543-8.79 8.246 3.546 8.636 8.251 8.785z" fill="#057d5f"/><path d="M34.932 74.112a7.7 7.7 0 0 0 7.939-7.448 7.7 7.7 0 0 0-15.392-.486 7.7 7.7 0 0 0 7.453 7.935z" fill="#fff"/><path d="M80.62 97.95c-2.475.825-7.551-9.118-7.551-9.118 3.361-1.913 10.17-8.217 16.225-15.391 2.475 1.741 7.512 4.474 8.612 6.123 2.619.525-14.667 18.386-17.286 18.386z" fill="#0ca680" stroke="#0ca680"/></g><defs><clipPath id="A"><path fill="#fff" transform="translate(12 16)" d="M0 0h88v83H0z"/></clipPath><path id="B" d="M35.708 49.785c4.706.149 8.641-3.543 8.79-8.246s-3.545-8.636-8.251-8.785-8.641 3.543-8.79 8.246 3.546 8.636 8.251 8.785z"/><path id="C" d="M34.84 77.255c4.706.149 8.641-3.543 8.79-8.246s-3.546-8.636-8.251-8.785-8.641 3.543-8.79 8.246 3.546 8.636 8.251 8.785z"/><path id="D" d="M64.889 66.655c4.706.149 8.641-3.543 8.79-8.246s-3.546-8.636-8.251-8.785-8.641 3.543-8.79 8.246 3.545 8.636 8.251 8.785z"/><path id="E" d="M35.801 46.642a7.7 7.7 0 0 0 7.939-7.448 7.7 7.7 0 0 0-15.392-.486 7.7 7.7 0 0 0 7.453 7.935z"/></defs></svg>
